X:1
T:Title
%%score { ( 1 4 ) | ( 2 3 ) }
L:1/8
M:6/8
K:G
V:1 treble nm="Grand Piano"
V:4 treble 
V:2 treble 
V:3 treble 
V:1
 z3 z[Q:1/4=78] B>c | [Bd]>ed [GB]2 G/A/ | [DB]>_B=B [EG]2 G | [EG]>FE [DG]>[FA][GB] | A3 z2 B/c/ | %5
 [Bd]>ed B2 G/A/ | [DB]>_B=B [EG]2 G/E/ | [B,D]>ED [B,D]B>A | [B,G]6 | A3- A^GA | [Ac]6 | %11
 B3- B_B=B | d6 | d>dd- d/e<d[DGB]/ | [DFA]3- [DFA]2 [DGB]/c/ | d>ed dBA | %16
[M:7/8] [B,G]>[CA][DB] [CE]3 [EG]/E/ | %17
[M:3/4] D>E DD BA[Q:1/4=77][Q:1/4=76][Q:1/4=74][Q:1/4=73][Q:1/4=72][Q:1/4=71][Q:1/4=69][Q:1/4=68][Q:1/4=67][Q:1/4=66][Q:1/4=65][Q:1/4=63][Q:1/4=62][Q:1/4=61][Q:1/4=60] | %18
[M:5/8] [B,DG]-[B,DG]- [B,DG]3 |] %19
V:2
 z3 z G>A | z z/ c/B[K:bass] z2 B,/C/ | z z/ ^C/D z2 E | z z/ D/C B,,>A,,G,, | %4
 z3[K:treble] d2 G/A/ | z z/ c/B [G,G]2 B,/C/ | z z/ ^C/D[K:bass] z2 E/=C/ | z z/ C/B, z D>C | %8
 G,,6 | F3- F=F^F | D,>D,D, .D,3 | D3- D^CD | [G,,B,G]>[B,,B,][D,B,] .[G,B,]3 | %13
 [G,B,G]>[G,B,G][G,B,G]- [G,B,G]/[G,CG]<[G,B,G][K:bass]G,,/ | D,3- D,2 z/[K:treble] [CA]/ | %15
 [G,B,G]>[G,CG][G,B,G] [G,B,G][K:bass][G,D][G,C] |[M:7/8] z z z z z2 [C,G,] | %17
[M:3/4] [D,G,B,]>[D,G,C] [D,G,B,][D,G,B,] [D,G,D][D,CD] |[M:5/8] G,,-G,,- G,,3 |] %19
V:3
 x6 | G,3[K:bass] G,3 | G,3 C,3 | C,3 z3 | D,6[K:treble] | G,3 z3 | G,3[K:bass] C,3 | D,3 D,3 | %8
 x6 | x6 | x6 | x6 | x6 | x11/2[K:bass] x/ | z3 z2 D,[K:treble] | x4[K:bass] x2 | %16
[M:7/8] [G,,G,]>[G,,G,][G,,G,] [C,G,]3 z/ C/ |[M:3/4] x6 |[M:5/8] x5 |] %19
V:4
 x6 | x6 | x6 | x6 | F6 | x6 | x6 | x6 | x6 | x6 | D>DD .D3 | x6 | z z/ G/G .G3 | x6 | x6 | x6 | %16
[M:7/8] x7 |[M:3/4] x6 |[M:5/8] x5 |] %19

